!!!OTL: 778. Eine Hand voll Erde.
!!!ODT: 1801 (Mel.)
!!!ARE: Europa, Mitteleuropa, Deutschland
!!!SCT: B0778
!!!TXL: @@ED
!!!YEM: Copyright 1995, estate of Helmut Schaffrath.
**kern	**text
*ICvox	*
*Ivox	*
*clefG2	*
*M2/4	*
*k[b-]	*
*F:	*
=1	=1
!LO:TX:a:t=Mäßig langſam.	!
{8a	Ei-
8a	-ne
8b-	Hand
8b-	voll
=2	=2
4cc	Er-
8a	-de
8r}	.
=3	=3
{8b-	deckt
8b-	mich
8a	ein-
8a	-ſtens
=4	=4
(4a	ʒu
8g)	.
8r}	.
=5	=5
{8a	wenn
8a	ich
8b-	mü-
8b-	-de
=6	=6
4cc	wer-
8a	-de,
8r}	.
=7	=7
{8cc	geb'
8cc	ich
8e	ein
8e	ʒur
=8	=8
(4a	Ruh'.
8g)	.
8r}	.
=9||	=9||
{8a	Dann
8a	ſtört
8b-	mich
8b-	kein
=10	=10
4cc	Kummer
8a	.
8r}	.
=11	=11
{8b-	ſanſt
8b-	in
8a	küh-
8a	-ler
=12	=12
(4a	Gruft
8g)	.
8r}	.
=13	=13
{8a	ſchlaf
8a	ich
8b-	Todesſchlum-
8b-	.
=14	=14
(8cc	.
4ff)	.
8dd}	-mer,
=15	=15
{8cc	bis
8cc	mich
8e	Je-
8e	-ſus
=16	=16
(4g	ruft.
8f)	.
8r}	.
==	==
!!!AGN: Trost - Lied, Tod, Klage, religioes
!!!ONB: ESAC (Essen Associative Code) Database: BOEHME
!!!AMT: simple duple
!!!AIN: vox
!!!EED: Helmut Schaffrath
!!!EEV: 1.0
!!!GTL: Religioese Lieder
!!@@COMMENT:"Lied mit Melodie um 1801 bekannt. Ʒwei werthloſe Strophen ſind hier weggeblieben. Die
!!ärmliche Melodie iſt vermuthlich von Chr. Bejamin Klein 4 1825 (wie Erk, Liederſchatʒ II. 241
!!meint). Nach anderer Annahme ſoll ſie von Türk ſein (ſ. Finks Hauſchatʒ Nr. 955).
!!Eine gute Umdichtung des im Volke verbreiteten Textes fand ich in rheinländ.[...] "
!!@@END:
!!!URL-scan: https://archive.org/details/BoehmeVtLieder1895/page/n619/mode/2up
!!!ENC: Anna Maria Matuszewska
!!!EEV: 2024/19/07
*-	*-
